suite-common/icons/assets/icons/eye.svg

<svg xmlns="http://www.w3.org/2000/svg" fill="none" viewBox="0 0 30 20">
  <path d="m14.025.029-.775.075C8.632.543 4.334 3.167 1.425 7.325c-.459.656-.967 1.5-1.232 2.047-.313.645-.266.865.442 2.074 1.328 2.268 3.235 4.337 5.315 5.763 2.138 1.467 4.417 2.322 7.2 2.699.633.086 3.067.086 3.7 0 3.173-.43 5.775-1.513 8.125-3.382 1.96-1.559 3.878-3.904 4.848-5.928.23-.481.231-.687.004-1.179-.743-1.608-2.374-3.741-3.953-5.169C23.277 1.901 20.315.528 16.975.125c-.623-.076-2.532-.137-2.95-.096m2.105 2.022c1.27.101 2.663.393 3.702.774 1.264.465 2.809 1.345 3.945 2.248.651.518 1.887 1.759 2.442 2.452.44.549 1.237 1.716 1.511 2.212l.145.263-.124.234c-.069.129-.3.502-.514.83-2.907 4.445-7.306 6.938-12.237 6.935-4.734-.002-8.878-2.214-11.799-6.297C2.789 11.126 2.15 10.091 2.15 10c0-.092.639-1.126 1.057-1.71 1.53-2.137 3.45-3.801 5.614-4.864 1.011-.497 1.6-.72 2.517-.955a14.6 14.6 0 0 1 4.792-.42m-1.705 1.977c-1.486.204-2.579.706-3.559 1.637-2.68 2.546-2.425 6.894.535 9.129 3.26 2.462 7.989.973 9.295-2.925 1.129-3.37-1.018-7.052-4.517-7.748-.359-.071-1.479-.13-1.754-.093M15.7 6.072c2.089.379 3.525 2.313 3.262 4.39-.205 1.614-1.242 2.856-2.812 3.368-.385.125-.494.138-1.15.138s-.765-.013-1.15-.138c-1.572-.512-2.606-1.75-2.811-3.368-.335-2.63 2.04-4.867 4.661-4.39"/>
</svg>

<svg xmlns="http://www.w3.org/2000/svg" fill="none" viewBox="0 0 30 20"><path d="M14.025 0.029 C 13.915 0.040,13.566 0.074,13.250 0.104 C 8.632 0.543,4.334 3.167,1.425 7.325 C 0.966 7.981,0.458 8.825,0.193 9.372 C -0.120 10.017,-0.073 10.237,0.635 11.446 C 1.963 13.714,3.870 15.783,5.950 17.209 C 8.088 18.676,10.367 19.531,13.150 19.908 C 13.783 19.994,16.217 19.994,16.850 19.908 C 20.023 19.478,22.625 18.395,24.975 16.526 C 26.935 14.967,28.853 12.622,29.823 10.598 C 30.053 10.117,30.054 9.911,29.827 9.419 C 29.084 7.811,27.453 5.678,25.874 4.250 C 23.277 1.901,20.315 0.528,16.975 0.125 C 16.352 0.049,14.443 -0.012,14.025 0.029 M16.130 2.051 C 17.400 2.152,18.793 2.444,19.832 2.825 C 21.096 3.290,22.641 4.170,23.777 5.073 C 24.428 5.591,25.664 6.832,26.219 7.525 C 26.659 8.074,27.456 9.241,27.730 9.737 L 27.875 10.000 27.751 10.234 C 27.682 10.363,27.451 10.736,27.237 11.064 C 24.330 15.509,19.931 18.002,15.000 17.999 C 10.266 17.997,6.122 15.785,3.201 11.702 C 2.789 11.126,2.150 10.091,2.150 10.000 C 2.150 9.908,2.789 8.874,3.207 8.290 C 4.737 6.153,6.657 4.489,8.821 3.426 C 9.832 2.929,10.421 2.706,11.338 2.471 C 12.917 2.066,14.536 1.924,16.130 2.051 M14.425 4.028 C 12.939 4.232,11.846 4.734,10.866 5.665 C 8.186 8.211,8.441 12.559,11.401 14.794 C 14.661 17.256,19.390 15.767,20.696 11.869 C 21.825 8.499,19.678 4.817,16.179 4.121 C 15.820 4.050,14.700 3.991,14.425 4.028 M15.700 6.072 C 17.789 6.451,19.225 8.385,18.962 10.462 C 18.757 12.076,17.720 13.318,16.150 13.830 C 15.765 13.955,15.656 13.968,15.000 13.968 C 14.344 13.968,14.235 13.955,13.850 13.830 C 12.278 13.318,11.244 12.080,11.039 10.462 C 10.704 7.832,13.079 5.595,15.700 6.072 " stroke="none" fill-rule="evenodd"></path></svg>
